X: 40790
T: Town Green, The
R: polka
M: 2/4
K: Gmajor
|:GG/A/ Bd|ed gB/c/|dc c/B/c|ed d/^c/d|
GG/A/ Bd|ed gB/c/|dc A/d/e/f/|gg g2:|
|:gB/c/ d/c/B/A/|G/B/d/g/ bb|F/A/c/e/ aa|F/A/g/a/ g2|
gB/c/ d/c/B/A/|G/B/d/g/ bb|F/A/c/e/ aa|gg g2:|
|:GE/G/ cG|BA A/^G/A|GB/d/ =fd|=fe e/d/e|
GE/G/ cG|BA A/^G/A|GB/d/ =fB|cc c2:|

